www/assets/icons/stroller.svg

<svg width="24" height="24" viewBox="0 0 24 24" xmlns="http://www.w3.org/2000/svg" fill='currentColor'><path d="M15 21.5C16.1046 21.5 17 20.6046 17 19.5C17 18.3954 16.1046 17.5 15 17.5C13.8954 17.5 13 18.3954 13 19.5C13 20.6046 13.8954 21.5 15 21.5Z"/><path d="M5 21.5C6.10457 21.5 7 20.6046 7 19.5C7 18.3954 6.10457 17.5 5 17.5C3.89543 17.5 3 18.3954 3 19.5C3 20.6046 3.89543 21.5 5 21.5Z"/><path d="M21 6.5V5.98C21 4.06 19.52 2.5 17.65 2.5C15.99 2.5 15.11 3.77 14.47 4.53L5.67 14.85C5.12 15.5 5.58 16.5 6.43 16.5H14C15.1 16.5 16 15.6 16 14.5V5.77C16.58 5.09 16.97 4.5 17.65 4.5C18.42 4.5 19 5.16 19 5.98V6.5H21Z"/><path d="M13.3 3.6C12.03 2.9 10.56 2.5 9 2.5C7.03 2.5 5.21 3.14 3.72 4.22L8.61 9.11L13.3 3.6Z"/></svg>

<svg xmlns="http://www.w3.org/2000/svg" width="24" height="24" viewBox="0 0 24 24" fill='currentColor'><path d="M15 21.5a2 2 0 1 0 0-4 2 2 0 0 0 0 4m-10 0a2 2 0 1 0 0-4 2 2 0 0 0 0 4m16-15v-.52c0-1.92-1.48-3.48-3.35-3.48-1.66 0-2.54 1.27-3.18 2.03l-8.8 10.32c-.55.65-.09 1.65.76 1.65H14c1.1 0 2-.9 2-2V5.77c.58-.68.97-1.27 1.65-1.27.77 0 1.35.66 1.35 1.48v.52zm-7.7-2.9a8.96 8.96 0 0 0-9.58.62l4.89 4.89z"/></svg>
